X: 1206
T: 1,2,3,4
B: australian traditional tunes wiki
M:2/4
L:1/16
R: Set Tune
Q: 1/4=100
K:G
V:1 
|:"G"D2DD G2GG|B2BB d2B2|"D7"cdcB A2d2|"G"BcBAG4|
"G"D2DD G2GG|B2BB d2B2|"D7"cdcB ADEF|"G"G4-G4:|
|:"C"e2z2 "G7"d4|"C"c4-c2EF|G2E2 c2E2|"G7"FGFE D4|d2dd d2c2|1
B4-B2A2|G2G2 A2G2|"C"E4-E4:|2B2z2 z2A2|G2G2 A2B2|"C"c4-c4||
% abcbook-tune_id 6342d53a1bee4c1f2cb8313e


% abcbook-boost 0
% abcbook-tablature 
% abcbook-transpose 
% abcbook-lastupdated 1665324354194
% abcbook-soundfonts 
% abcbook-repeats 1
% NFF Book 2009

